X:2309
T:Polska efter Zakarias Jansson
O:Dalsland, Källhult, Dalskog
S:Zakarias Jansson
R:Polska
N:efter [[http://www.dalspel.se/repertoar.html|uppteckning av Axel Boberg]] (jmf SvL 211)
Z:Nils L
M:3/4
L:1/8
K:Em
B>(A B)(d B)d | ed eg (fd) | ef ga fa | (3geg e>g fd | 
B>(A B)(d B)d | ed eg (fd) | ef ga fa | (3geg e2 z2 ::
e>g b2 gb | ba ag fd | ef ga fa | (3geg e>g fd |
e>g b2 gb | ba ag fd | ef ga fa | (3geg e2 z2 :|
(:musicend:)

(:music:)
